svg/fluentui-system-icons/ic_fluent_arrow_autofit_height_in_20_regular.svg

<svg width="20" height="20" viewBox="0 0 20 20" fill="none" xmlns="http://www.w3.org/2000/svg">
<path d="M14.8536 7.85355L16.8536 5.85355C17.0488 5.65829 17.0488 5.34171 16.8536 5.14645C16.6583 4.95118 16.3417 4.95118 16.1464 5.14645L15 6.29289V2.5C15 2.22386 14.7761 2 14.5 2C14.2239 2 14 2.22386 14 2.5V6.29289L12.8536 5.14645C12.6583 4.95118 12.3417 4.95118 12.1464 5.14645C11.9512 5.34171 11.9512 5.65829 12.1464 5.85355L14.1464 7.85355C14.3417 8.04882 14.6583 8.04882 14.8536 7.85355ZM3 5C3 3.89543 3.89543 3 5 3H9.5C9.77614 3 10 3.22386 10 3.5C10 3.77614 9.77614 4 9.5 4H5C4.44772 4 4 4.44772 4 5V15C4 15.5523 4.44772 16 5 16H9.5C9.77614 16 10 16.2239 10 16.5C10 16.7761 9.77614 17 9.5 17H5C3.89543 17 3 16.1046 3 15V5ZM16.8536 14.1464L14.8536 12.1464C14.6583 11.9512 14.3417 11.9512 14.1464 12.1464L12.1464 14.1464C11.9512 14.3417 11.9512 14.6583 12.1464 14.8536C12.3417 15.0488 12.6583 15.0488 12.8536 14.8536L14 13.7071V17.5C14 17.7761 14.2239 18 14.5 18C14.7761 18 15 17.7761 15 17.5V13.7071L16.1464 14.8536C16.3417 15.0488 16.6583 15.0488 16.8536 14.8536C17.0488 14.6583 17.0488 14.3417 16.8536 14.1464Z" fill="#212121"/>
</svg>

<svg xmlns="http://www.w3.org/2000/svg" width="20" height="20"><path d="m14.854 7.854 2-2a.5.5 0 0 0-.708-.708L15 6.293V2.5a.5.5 0 0 0-1 0v3.793l-1.146-1.147a.5.5 0 0 0-.708.708l2 2a.5.5 0 0 0 .708 0ZM3 5a2 2 0 0 1 2-2h4.5a.5.5 0 0 1 0 1H5a1 1 0 0 0-1 1v10a1 1 0 0 0 1 1h4.5a.5.5 0 0 1 0 1H5a2 2 0 0 1-2-2V5Zm13.854 9.146-2-2a.5.5 0 0 0-.708 0l-2 2a.5.5 0 0 0 .708.708L14 13.707V17.5a.5.5 0 0 0 1 0v-3.793l1.146 1.147a.5.5 0 0 0 .708-.708Z"/></svg>
